X:1
T:Sherlock, 77.77 D
T:Sherlock, 77.77 D
T:Charles Crozat Converse, 1866
T:Public Domain Courtesy of the Cyber Hymnal™
C:Charles Crozat Converse, 1866
Z:Public Domain
Z:Courtesy of the Cyber Hymnal™
%%score ( 1 2 ) 3
L:1/8
Q:1/4=130
M:3/4
K:D
V:1 treble 
V:2 treble 
V:3 bass 
V:1
 [DF]4 [DF]2 | ([EG]2 [DF]2) [EG]2 | [FA]4 [Fd]2 | [FA]6 | [GB]4 [GB]2 | [FA]4 [DF]2 | %6
 ([CE]2 [EG]2) [DF]2 | [CE]6 | [DF]4 [DF]2 | ([EG]2 [DF]2) [EG]2 | [FA]4 [DF]2 | [DB]6 | %12
 [Bd]4 [GB]2 | [FA]4 [DF]2 | ([CE]2 [DF]2) [CE]2 | D6 |] %16
V:2
 x6 | x6 | x6 | x6 | x6 | x6 | x6 | x6 | x6 | x6 | x6 | x6 | x6 | x6 | x6 | D6 |] %16
V:3
 [D,A,]4 [D,A,]2 | [D,A,]4 [D,A,]2 | [D,A,]4 [D,A,]2 | [D,D]6 | [G,D]4 [G,D]2 | [D,D]4 [D,A,]2 | %6
 [A,,A,]4 [A,,A,]2 | [A,,A,]6 | [D,A,]4 [D,A,]2 | [D,A,]4 [D,A,]2 | [D,D]4 [D,D]2 | [G,D]6 | %12
 [G,D]4 [G,D]2 | [D,D]4 [D,A,]2 | [A,,A,]4 [A,,G,]2 | [D,F,]6 |] %16

